Papirus/64x64/apps/mystiq.svg

<svg xmlns="http://www.w3.org/2000/svg" width="64" height="64" version="1.1">
 <path style="opacity:0.2" d="m 8.8554591,14.000048 c -3.1227853,0 -5.7132924,2.058495 -6.5468668,4.874993 -0.02768,0.0838 -0.079296,0.1507 -0.1015619,0.238282 -0.034314,0.13496 -0.052076,0.275964 -0.078126,0.414062 -0.00404,0.0214 -0.01178,0.04102 -0.01562,0.0625 0.0024,-0.0054 0.0054,-0.0102 0.00782,-0.0156 -0.071482,0.394151 -0.1211057,0.795771 -0.1211057,1.21091 v 24.128876 0.300781 C 1.9999989,48.974134 5.0566067,52 8.8554591,52 H 43.144479 c 3.798856,0 6.85546,-3.025866 6.85546,-6.785148 v -5.429681 l 10.035143,5.847649 c 1.177761,0.709343 1.947092,0.36592 1.964842,-0.855467 V 21.195351 c 0.0106,-1.239481 -1.085125,-1.493631 -1.964842,-0.855467 l -10.035143,7.007803 v -5.613273 -0.949219 c 0,-3.759281 -3.056604,-6.785147 -6.85546,-6.785147 z"/>
 <path style="fill:#6f7a9c" d="m 60.034012,19.338138 -10.072957,7.038095 c -1.089201,0.880217 -1.966168,4.328227 -1.966168,5.682527 0.05166,1.134613 0.673544,5.657155 1.966168,6.702664 l 10.072681,5.873206 c 1.177761,0.709344 1.948362,0.365696 1.966112,-0.85569 V 20.193841 c 0.0106,-1.239482 -1.086119,-1.493866 -1.965836,-0.855703 z"/>
 <path style="fill:#6f7a9c" d="m 10.039398,14.36499 33.201927,-0.194991 c 3.798786,-0.02231 5.350894,2.152669 5.182262,5.908244 l -1.083743,24.136054 c -0.16864,3.755575 -2.467315,4.96831 -6.266002,4.933286 L 9.3497433,48.855095 C 5.5510559,48.820073 1.9999988,47.973578 1.9999988,44.214297 V 19.785756 c 0,-0.577378 0.072141,-1.137466 0.208028,-1.671959 0.7488659,-2.94557 4.6160293,-3.729923 7.8313712,-3.748807 z"/>
 <path style="fill:#565f7c" d="m 8.8571331,13.00005 c -3.3854349,0 -6.1758896,2.406443 -6.7446345,5.590256 0.7186193,-1.635577 2.3372658,-2.565395 3.9374952,-2.555243 0.7141243,0.0048 1.5015156,0.195469 2.3276755,0.593749 l 31.6713897,15.23868 4.049995,-2.279573 c 3.084574,-1.487074 5.578523,-5.316589 5.900885,-8.853225 v -0.948938 c 0,-3.759281 -3.05828,-6.785706 -6.857136,-6.785706 z"/>
 <path style="opacity:0.1;fill:#ffffff" d="M 61.203125 19.019531 C 61.050185 18.989203 60.884615 18.992449 60.714844 19.027344 C 60.488482 19.073864 60.255086 19.180304 60.035156 19.339844 L 49.960938 26.375 C 48.871736 27.255217 47.996094 30.704294 47.996094 32.058594 C 47.999764 32.138951 48.024499 32.32287 48.037109 32.449219 C 48.222309 30.867837 49.010396 28.143162 49.960938 27.375 L 60.035156 20.339844 C 60.255086 20.180304 60.488482 20.073864 60.714844 20.027344 C 61.393929 19.887765 62.008 20.265701 62 21.195312 L 62 20.195312 C 62.006 19.498104 61.661946 19.110516 61.203125 19.019531 z"/>
 <path style="fill:#434a61" d="m 49.999939,20.734694 c -0.322362,3.53664 -2.816311,7.366145 -5.900885,8.853225 L 39.676738,31.719057 8.3776693,46.809298 c -0.6098518,0.294037 -1.1984841,0.474865 -1.7517834,0.551339 0,0 -0.00268,0 -0.00268,0 -0.02166,0.0032 -0.04271,0.0054 -0.064286,0.008 -0.00178,2.12e-4 -0.00358,-2.12e-4 -0.00538,0 -0.062416,0.0074 -0.1260038,0.0138 -0.1874998,0.0186 -0.0021,1.44e-4 -0.00334,-2.44e-4 -0.00538,0 -0.021388,0.0014 -0.042932,0.0038 -0.064286,0.0052 -0.4473526,0.0288 -0.8700743,-0.013 -1.2589268,-0.12192 -0.079416,-0.02188 -0.1564058,-0.04658 -0.2330355,-0.07422 -0.3400944,-0.12264 -0.6512316,-0.300819 -0.929463,-0.527483 0,0 -0.00268,-0.0028 -0.00268,-0.0028 -0.065832,-0.05372 -0.1308639,-0.1102 -0.1928578,-0.16964 C 3.0565344,45.900129 2.2999785,45.020476 1.9999988,43.912121 v 0.302176 c 0,3.759281 3.0582819,6.785705 6.8571343,6.785705 H 43.142803 c 3.798856,0 6.857136,-3.026424 6.857136,-6.785705 z"/>
 <path style="opacity:0.2" d="M 15.999981,21.296102 V 44.13201 l 23.675753,-11.414048 0.03126,-0.0156 z"/>
 <path style="fill:#ffffff" d="m 15.999981,20.296917 v 22.835907 l 23.675753,-11.414047 0.03126,-0.0156 z"/>
 <path style="opacity:0.1;fill:#ffffff" d="M 8.8554688 13 C 5.4700339 13 2.6820262 15.406031 2.1132812 18.589844 C 2.3176673 18.124661 2.5966957 17.720729 2.9257812 17.378906 C 4.1076821 15.355707 6.3138682 14 8.8554688 14 L 43.144531 14 C 46.930049 14 49.976692 17.005172 49.998047 20.746094 C 49.998438 20.74221 49.999647 20.738255 50 20.734375 L 50 19.785156 C 50.000006 16.025875 46.943387 13 43.144531 13 L 8.8554688 13 z"/>
</svg>

<?xml version="1.0" encoding="UTF-8" standalone="no"?>
<svg
   id="_图层_1"
   version="1.1"
   viewBox="0 0 64 64" width="64" height="64"
   sodipodi:docname="mystiq.svg"
   xml:space="preserve"
   inkscape:version="1.4 (e7c3feb100, 2024-10-09)"
   xmlns:inkscape="http://www.inkscape.org/namespaces/inkscape"
   xmlns:sodipodi="http://sodipodi.sourceforge.net/DTD/sodipodi-0.dtd"
   xmlns="http://www.w3.org/2000/svg"
   xmlns:svg="http://www.w3.org/2000/svg"><sodipodi:namedview
     id="namedview26"
     pagecolor="#505050"
     bordercolor="#eeeeee"
     borderopacity="1"
     inkscape:showpageshadow="0"
     inkscape:pageopacity="0"
     inkscape:pagecheckerboard="0"
     inkscape:deskcolor="#505050"
     inkscape:zoom="8.453125"
     inkscape:cx="32"
     inkscape:cy="32"
     inkscape:window-width="1421"
     inkscape:window-height="796"
     inkscape:window-x="751"
     inkscape:window-y="88"
     inkscape:window-maximized="0"
     inkscape:current-layer="_图层_1" /><!-- Generator: Adobe Illustrator 29.0.1, SVG Export Plug-In . SVG Version: 2.1.0 Build 192)  --><defs
     id="defs6"><style
       id="style1">
      .st0 {
        fill-opacity: .5;
      }

      .st0, .st1, .st2, .st3, .st4, .st5, .st6, .st7 {
        fill: #fff;
      }

      .st8 {
        fill: #133c9a;
      }

      .st2, .st9 {
        display: none;
      }

      .st3 {
        fill-opacity: .2;
      }

      .st4 {
        fill-opacity: .9;
      }

      .st10 {
        fill: #3370ff;
      }

      .st11 {
        fill: url(#_未命名的渐变_3);
      }

      .st12 {
        fill: url(#_未命名的渐变);
      }

      .st5 {
        fill-opacity: .3;
      }

      .st6 {
        fill-opacity: 0;
      }

      .st7 {
        fill-opacity: .7;
      }

      .st13 {
        fill: #00d6b9;
      }

      .st14 {
        fill: url(#_未命名的渐变_2);
      }
    </style><radialGradient
       id="_未命名的渐变"
       data-name="未命名的渐变"
       cx="123.9"
       cy="-40.2"
       fx="123.9"
       fy="-40.2"
       r="59.4"
       gradientTransform="translate(-26.8 25.5) scale(.6 -.7)"
       gradientUnits="userSpaceOnUse"><stop
         offset="0"
         stop-color="#db202e"
         id="stop1" /><stop
         offset="1"
         stop-color="#e01b24"
         id="stop2" /></radialGradient><radialGradient
       id="_未命名的渐变_2"
       data-name="未命名的渐变 2"
       cx="67.6"
       cy="26.8"
       fx="67.6"
       fy="26.8"
       r="105.2"
       gradientTransform="translate(-26.6 25.3) scale(.6 -.7)"
       gradientUnits="userSpaceOnUse"><stop
         offset="0"
         stop-color="#ffb648"
         id="stop3" /><stop
         offset="1"
         stop-color="#ff7800"
         stop-opacity="0"
         id="stop4" /></radialGradient><radialGradient
       id="_未命名的渐变_3"
       data-name="未命名的渐变 3"
       cx="61.7"
       cy="18.6"
       fx="61.7"
       fy="18.6"
       r="68"
       gradientTransform="translate(-26.8 25.8) scale(.6 -.7)"
       gradientUnits="userSpaceOnUse"><stop
         offset="0"
         stop-color="#c64600"
         id="stop5" /><stop
         offset="1"
         stop-color="#a51d2d"
         id="stop6" /></radialGradient></defs><path
     class="st1"
     d="M47.5,64.1H13.8c-7.6,0-13.8-6.3-13.8-13.8V13.7C0,6.2,6.2,0,13.7,0h36.6c7.5,0,13.7,6.2,13.7,13.7v36.6c0,7.5-6.2,13.7-13.7,13.7h-2.9.1Z"
     id="path6"
     style="fill:#f9f9f9;fill-opacity:1" /><g
     id="g33"
     transform="matrix(0.90141726,0,0,0.82406749,3.6278112,6.9922982)"><path
       style="opacity:0.2"
       d="m 8.8554591,14.000048 c -3.1227853,0 -5.7132924,2.058495 -6.5468668,4.874993 -0.02768,0.0838 -0.079296,0.1507 -0.1015619,0.238282 -0.034314,0.13496 -0.052076,0.275964 -0.078126,0.414062 -0.00404,0.0214 -0.01178,0.04102 -0.01562,0.0625 0.0024,-0.0054 0.0054,-0.0102 0.00782,-0.0156 -0.071482,0.394151 -0.1211057,0.795771 -0.1211057,1.21091 v 24.128876 0.300781 C 1.9999989,48.974134 5.0566067,52 8.8554591,52 H 43.144479 c 3.798856,0 6.85546,-3.025866 6.85546,-6.785148 v -5.429681 l 10.035143,5.847649 c 1.177761,0.709343 1.947092,0.36592 1.964842,-0.855467 V 21.195351 c 0.0106,-1.239481 -1.085125,-1.493631 -1.964842,-0.855467 l -10.035143,7.007803 v -5.613273 -0.949219 c 0,-3.759281 -3.056604,-6.785147 -6.85546,-6.785147 z"
       id="path1-2" /><path
       style="fill:#6f7a9c"
       d="m 60.034012,19.338138 -10.072957,7.038095 c -1.089201,0.880217 -1.966168,4.328227 -1.966168,5.682527 0.05166,1.134613 0.673544,5.657155 1.966168,6.702664 l 10.072681,5.873206 c 1.177761,0.709344 1.948362,0.365696 1.966112,-0.85569 V 20.193841 c 0.0106,-1.239482 -1.086119,-1.493866 -1.965836,-0.855703 z"
       id="path2-6" /><path
       style="fill:#6f7a9c"
       d="m 10.039398,14.36499 33.201927,-0.194991 c 3.798786,-0.02231 5.350894,2.152669 5.182262,5.908244 l -1.083743,24.136054 c -0.16864,3.755575 -2.467315,4.96831 -6.266002,4.933286 L 9.3497433,48.855095 C 5.5510559,48.820073 1.9999988,47.973578 1.9999988,44.214297 V 19.785756 c 0,-0.577378 0.072141,-1.137466 0.208028,-1.671959 0.7488659,-2.94557 4.6160293,-3.729923 7.8313712,-3.748807 z"
       id="path3-1" /><path
       style="fill:#565f7c"
       d="m 8.8571331,13.00005 c -3.3854349,0 -6.1758896,2.406443 -6.7446345,5.590256 0.7186193,-1.635577 2.3372658,-2.565395 3.9374952,-2.555243 0.7141243,0.0048 1.5015156,0.195469 2.3276755,0.593749 l 31.6713897,15.23868 4.049995,-2.279573 c 3.084574,-1.487074 5.578523,-5.316589 5.900885,-8.853225 v -0.948938 c 0,-3.759281 -3.05828,-6.785706 -6.857136,-6.785706 z"
       id="path4-8" /><path
       style="opacity:0.1;fill:#ffffff"
       d="m 61.203125,19.019531 c -0.15294,-0.03033 -0.31851,-0.02708 -0.488281,0.0078 -0.226362,0.04652 -0.459758,0.15296 -0.679688,0.3125 L 49.960938,26.375 c -1.089202,0.880217 -1.964844,4.329294 -1.964844,5.683594 0.0037,0.08036 0.0284,0.264276 0.04102,0.390625 0.1852,-1.581382 0.973287,-4.306057 1.923829,-5.074219 l 10.074218,-7.035156 c 0.21993,-0.15954 0.453326,-0.26598 0.679688,-0.3125 C 61.393929,19.887765 62.008,20.265701 62,21.195312 v -1 c 0.006,-0.697208 -0.338054,-1.084796 -0.796875,-1.175781 z"
       id="path5-7" /><path
       style="fill:#434a61"
       d="m 49.999939,20.734694 c -0.322362,3.53664 -2.816311,7.366145 -5.900885,8.853225 L 39.676738,31.719057 8.3776693,46.809298 c -0.6098518,0.294037 -1.1984841,0.474865 -1.7517834,0.551339 0,0 -0.00268,0 -0.00268,0 -0.02166,0.0032 -0.04271,0.0054 -0.064286,0.008 -0.00178,2.12e-4 -0.00358,-2.12e-4 -0.00538,0 -0.062416,0.0074 -0.1260038,0.0138 -0.1874998,0.0186 -0.0021,1.44e-4 -0.00334,-2.44e-4 -0.00538,0 -0.021388,0.0014 -0.042932,0.0038 -0.064286,0.0052 -0.4473526,0.0288 -0.8700743,-0.013 -1.2589268,-0.12192 -0.079416,-0.02188 -0.1564058,-0.04658 -0.2330355,-0.07422 -0.3400944,-0.12264 -0.6512316,-0.300819 -0.929463,-0.527483 0,0 -0.00268,-0.0028 -0.00268,-0.0028 -0.065832,-0.05372 -0.1308639,-0.1102 -0.1928578,-0.16964 C 3.0565344,45.900129 2.2999785,45.020476 1.9999988,43.912121 v 0.302176 c 0,3.759281 3.0582819,6.785705 6.8571343,6.785705 H 43.142803 c 3.798856,0 6.857136,-3.026424 6.857136,-6.785705 z"
       id="path6-9" /><path
       style="opacity:0.2"
       d="M 15.999981,21.296102 V 44.13201 l 23.675753,-11.414048 0.03126,-0.0156 z"
       id="path7" /><path
       style="fill:#ffffff"
       d="m 15.999981,20.296917 v 22.835907 l 23.675753,-11.414047 0.03126,-0.0156 z"
       id="path8" /><path
       style="opacity:0.1;fill:#ffffff"
       d="m 8.8554688,13 c -3.3854349,0 -6.1734426,2.406031 -6.7421876,5.589844 0.2043861,-0.465183 0.4834145,-0.869115 0.8125,-1.210938 C 4.1076821,15.355707 6.3138682,14 8.8554688,14 H 43.144531 c 3.785518,0 6.832161,3.005172 6.853516,6.746094 3.91e-4,-0.0039 0.0016,-0.0078 0.002,-0.01172 V 19.785156 C 50.000006,16.025875 46.943387,13 43.144531,13 Z"
       id="path9" /></g></svg>
